resources/svg/xls-o.svg

<svg xmlns="http://www.w3.org/2000/svg" viewBox="0 0 15 15" fill="none"><path d="M13.5 3.5H14V3.29289L13.8536 3.14645L13.5 3.5ZM10.5 0.5L10.8536 0.146447L10.7071 0H10.5V0.5ZM6.5 10.5H6V11H6.5V10.5ZM4.5 9.5H5V9.29289L4.85355 9.14645L4.5 9.5ZM2.5 7.5H2V7.70711L2.14645 7.85355L2.5 7.5ZM10.5 6.5V6H10V6.5H10.5ZM10.5 8.5H10V9H10.5V8.5ZM12.5 8.5H13V8H12.5V8.5ZM12.5 10.5V11H13V10.5H12.5ZM2.5 9.5L2.14645 9.14645L2 9.29289V9.5H2.5ZM4.5 7.5L4.85355 7.85355L5 7.70711V7.5H4.5ZM2 5V1.5H1V5H2ZM13 3.5V5H14V3.5H13ZM2.5 1H10.5V0H2.5V1ZM10.1464 0.853553L13.1464 3.85355L13.8536 3.14645L10.8536 0.146447L10.1464 0.853553ZM2 1.5C2 1.22386 2.22386 1 2.5 1V0C1.67157 0 1 0.671573 1 1.5H2ZM1 12V13.5H2V12H1ZM2.5 15H12.5V14H2.5V15ZM14 13.5V12H13V13.5H14ZM12.5 15C13.3284 15 14 14.3284 14 13.5H13C13 13.7761 12.7761 14 12.5 14V15ZM1 13.5C1 14.3284 1.67157 15 2.5 15V14C2.22386 14 2 13.7761 2 13.5H1ZM6 6V10.5H7V6H6ZM6.5 11H9V10H6.5V11ZM4 9.5V11H5V9.5H4ZM4.85355 9.14645L2.85355 7.14645L2.14645 7.85355L4.14645 9.85355L4.85355 9.14645ZM3 7.5V6H2V7.5H3ZM13 6H10.5V7H13V6ZM10 6.5V8.5H11V6.5H10ZM10.5 9H12.5V8H10.5V9ZM12 8.5V10.5H13V8.5H12ZM12.5 10H10V11H12.5V10ZM3 11V9.5H2V11H3ZM2.85355 9.85355L4.85355 7.85355L4.14645 7.14645L2.14645 9.14645L2.85355 9.85355ZM5 7.5V6H4V7.5H5Z" fill="black"/></svg>

<svg xmlns="http://www.w3.org/2000/svg" viewBox="0 0 15 15" fill="none"><path d="M13.5 3.5h.5v-.207l-.146-.147-.354.354zm-3-3l.354-.354L10.707 0H10.5v.5zm-4 10H6v.5h.5v-.5zm-2-1H5v-.207l-.146-.147L4.5 9.5zm-2-2H2v.207l.146.147L2.5 7.5zm8-1V6H10v.5h.5zm0 2H10V9h.5v-.5zm2 0h.5V8h-.5v.5zm0 2v.5h.5v-.5h-.5zm-10-1l-.354-.354L2 9.293V9.5h.5zm2-2l.354.354L5 7.707V7.5h-.5zM2 5V1.5H1V5h1zm11-1.5V5h1V3.5h-1zM2.5 1h8V0h-8v1zm7.646-.146l3 3 .708-.708-3-3-.708.708zM2 1.5a.5.5 0 01.5-.5V0A1.5 1.5 0 001 1.5h1zM1 12v1.5h1V12H1zm1.5 3h10v-1h-10v1zM14 13.5V12h-1v1.5h1zM12.5 15a1.5 1.5 0 001.5-1.5h-1a.5.5 0 01-.5.5v1zM1 13.5A1.5 1.5 0 002.5 15v-1a.5.5 0 01-.5-.5H1zM6 6v4.5h1V6H6zm.5 5H9v-1H6.5v1zM4 9.5V11h1V9.5H4zm.854-.354l-2-2-.708.708 2 2 .708-.708zM3 7.5V6H2v1.5h1zM13 6h-2.5v1H13V6zm-3 .5v2h1v-2h-1zm.5 2.5h2V8h-2v1zm1.5-.5v2h1v-2h-1zm.5 1.5H10v1h2.5v-1zM3 11V9.5H2V11h1zm-.146-1.146l2-2-.708-.708-2 2 .708.708zM5 7.5V6H4v1.5h1z" fill="currentColor"/></svg>
